resources/icons/cisco/microphone.svg

<?xml version="1.0" encoding="UTF-8"?>
<svg xmlns="http://www.w3.org/2000/svg" xmlns:xlink="http://www.w3.org/1999/xlink" width="165pt" height="200pt" viewBox="0 0 165 200" version="1.1">
<g id="surface1">
<path style=" stroke:none;fill-rule:nonzero;fill:rgb(0.784314%,43.921569%,62.352941%);fill-opacity:1;" d="M 42.210938 27.621094 L 77.359375 90.710938 C 82 99.511719 78.785156 110.417969 70.117188 115.273438 C 61.453125 120.128906 50.507812 117.152344 45.472656 108.574219 L 10.941406 46.597656 "/>
<path style="fill:none;stroke-width:0.5;stroke-linecap:butt;stroke-linejoin:miter;stroke:rgb(100%,100%,100%);stroke-opacity:1;stroke-miterlimit:4;" d="M 12.279545 8.010117 L 22.504545 26.306172 C 23.892045 28.86293 22.964773 32.059727 20.425 33.478008 C 17.885227 34.896289 14.677273 34.008164 13.228409 31.486523 L 3.182955 13.512188 " transform="matrix(3.4375,0,0,3.448276,0,0)"/>
<path style=" stroke:none;fill-rule:nonzero;fill:rgb(0.784314%,43.921569%,62.352941%);fill-opacity:1;" d="M 42.210938 27.621094 L 77.359375 90.710938 C 82 99.511719 78.785156 110.417969 70.117188 115.273438 C 61.453125 120.128906 50.507812 117.152344 45.472656 108.574219 L 10.941406 46.597656 "/>
<path style="fill:none;stroke-width:0.5;stroke-linecap:butt;stroke-linejoin:miter;stroke:rgb(100%,100%,100%);stroke-opacity:1;stroke-miterlimit:4;" d="M 12.279545 8.010117 L 22.504545 26.306172 C 23.892045 28.86293 22.964773 32.059727 20.425 33.478008 C 17.885227 34.896289 14.677273 34.008164 13.228409 31.486523 L 3.182955 13.512188 " transform="matrix(3.4375,0,0,3.448276,0,0)"/>
<path style=" stroke:none;fill-rule:nonzero;fill:rgb(0.784314%,43.921569%,62.352941%);fill-opacity:1;" d="M 53.210938 193.097656 C 26.351562 193.097656 4.597656 186.277344 4.597656 177.855469 C 4.597656 169.441406 26.351562 162.621094 53.210938 162.621094 C 80.0625 162.621094 101.816406 169.441406 101.816406 177.859375 C 101.816406 186.277344 80.0625 193.097656 53.210938 193.097656 "/>
<path style="fill:none;stroke-width:0.5;stroke-linecap:butt;stroke-linejoin:miter;stroke:rgb(100%,100%,100%);stroke-opacity:1;stroke-miterlimit:4;" d="M 15.479545 55.999453 C 7.665909 55.999453 1.3375 54.021563 1.3375 51.579219 C 1.3375 49.136875 7.665909 47.158984 15.479545 47.158984 C 23.290909 47.158984 29.619318 49.136875 29.619318 51.579219 C 29.619318 54.021563 23.289773 55.999453 15.479545 55.999453 Z M 15.479545 55.999453 " transform="matrix(3.4375,0,0,3.448276,0,0)"/>
<path style=" stroke:none;fill-rule:nonzero;fill:rgb(0.784314%,43.921569%,62.352941%);fill-opacity:1;" d="M 53.210938 174.171875 C 39.777344 174.171875 28.90625 170.753906 28.90625 166.542969 C 28.90625 162.335938 39.777344 158.933594 53.210938 158.933594 C 66.636719 158.933594 77.511719 162.339844 77.511719 166.542969 C 77.511719 170.753906 66.636719 174.171875 53.210938 174.171875 "/>
<path style="fill:none;stroke-width:0.5;stroke-linecap:butt;stroke-linejoin:miter;stroke:rgb(100%,100%,100%);stroke-opacity:1;stroke-miterlimit:4;" d="M 15.479545 50.509844 C 11.571591 50.509844 8.409091 49.518633 8.409091 48.297461 C 8.409091 47.078555 11.571591 46.090742 15.479545 46.090742 C 19.385227 46.090742 22.548864 47.077422 22.548864 48.297461 C 22.548864 49.5175 19.385227 50.509844 15.479545 50.509844 Z M 15.479545 50.509844 " transform="matrix(3.4375,0,0,3.448276,0,0)"/>
<path style=" stroke:none;fill-rule:nonzero;fill:rgb(0%,0%,0%);fill-opacity:1;" d="M 42.699219 28.222656 C 47.632812 37.0625 42.332031 43.898438 33.523438 48.839844 C 24.722656 53.785156 15.742188 54.929688 10.828125 46.089844 L 4.5 34.746094 L 3.539062 32.234375 C -1.375 23.40625 0.441406 9.015625 9.246094 4.082031 C 18.046875 -0.851562 29.714844 4.988281 34.632812 13.832031 L 35.765625 15.765625 L 42.703125 28.222656 "/>
<path style="fill:none;stroke-width:0.5;stroke-linecap:butt;stroke-linejoin:miter;stroke:rgb(100%,100%,100%);stroke-opacity:1;stroke-miterlimit:4;" d="M 12.421591 8.185703 C 13.856818 10.749258 12.314773 12.730547 9.752273 14.162422 C 7.192045 15.596563 4.579545 15.929609 3.15 13.366055 L 1.309091 10.075234 L 1.029545 9.346836 C -0.4 6.790078 0.128409 2.614531 2.689773 1.183789 C 5.25 -0.24582 8.644318 1.446602 10.075 4.011289 L 10.404545 4.572031 L 12.422727 8.185703 Z M 12.421591 8.185703 " transform="matrix(3.4375,0,0,3.448276,0,0)"/>
<path style=" stroke:none;fill-rule:nonzero;fill:rgb(0.784314%,43.921569%,62.352941%);fill-opacity:1;" d="M 42.699219 28.222656 C 47.632812 37.0625 42.332031 43.898438 33.523438 48.839844 C 24.722656 53.785156 15.742188 54.929688 10.828125 46.089844 L 4.5 34.746094 L 3.539062 32.234375 C -1.375 23.40625 0.441406 9.015625 9.246094 4.082031 C 18.046875 -0.851562 29.714844 4.988281 34.632812 13.832031 L 35.765625 15.765625 L 42.703125 28.222656 "/>
<path style="fill:none;stroke-width:0.5;stroke-linecap:butt;stroke-linejoin:miter;stroke:rgb(100%,100%,100%);stroke-opacity:1;stroke-miterlimit:4;" d="M 12.421591 8.185703 C 13.856818 10.749258 12.314773 12.730547 9.752273 14.162422 C 7.192045 15.596563 4.579545 15.929609 3.15 13.366055 L 1.309091 10.075234 L 1.029545 9.346836 C -0.4 6.790078 0.128409 2.614531 2.689773 1.183789 C 5.25 -0.24582 8.644318 1.446602 10.075 4.011289 L 10.404545 4.572031 L 12.422727 8.185703 Z M 12.421591 8.185703 " transform="matrix(3.4375,0,0,3.448276,0,0)"/>
<path style=" stroke:none;fill-rule:nonzero;fill:rgb(0.784314%,43.921569%,62.352941%);fill-opacity:1;" d="M 53.210938 169.777344 C 51.785156 169.777344 50.414062 169.210938 49.40625 168.199219 C 48.398438 167.1875 47.832031 165.816406 47.835938 164.386719 L 47.835938 77.640625 C 47.835938 74.683594 50.234375 72.253906 53.210938 72.253906 C 56.175781 72.253906 58.578125 74.683594 58.578125 77.640625 L 58.578125 164.386719 C 58.582031 165.816406 58.015625 167.1875 57.007812 168.199219 C 56 169.210938 54.632812 169.777344 53.207031 169.777344 "/>
<path style="fill:none;stroke-width:0.5;stroke-linecap:butt;stroke-linejoin:miter;stroke:rgb(100%,100%,100%);stroke-opacity:1;stroke-miterlimit:4;" d="M 15.479545 49.236563 C 15.064773 49.236563 14.665909 49.072305 14.372727 48.778906 C 14.079545 48.485508 13.914773 48.087891 13.915909 47.673281 L 13.915909 22.516914 C 13.9375 21.66957 14.630682 20.993281 15.478409 20.993281 C 16.326136 20.993281 17.019318 21.66957 17.040909 22.516914 L 17.040909 47.673281 C 17.040909 48.536484 16.342045 49.236563 15.478409 49.236563 Z M 15.479545 49.236563 " transform="matrix(3.4375,0,0,3.448276,0,0)"/>
<path style=" stroke:none;fill-rule:nonzero;fill:rgb(0.784314%,43.921569%,62.352941%);fill-opacity:1;" d="M 54.550781 87.410156 C 57.640625 87.335938 60.109375 84.796875 60.109375 81.695312 C 60.109375 78.59375 57.640625 76.054688 54.550781 75.980469 C 51.402344 75.980469 48.851562 78.539062 48.851562 81.695312 C 48.851562 84.851562 51.402344 87.410156 54.550781 87.410156 "/>
<path style="fill:none;stroke-width:0.5;stroke-linecap:butt;stroke-linejoin:miter;stroke:rgb(100%,100%,100%);stroke-opacity:1;stroke-miterlimit:4;" d="M 15.869318 25.348945 C 16.785227 25.348945 17.527273 24.606953 17.527273 23.690508 C 17.527273 22.775195 16.785227 22.033203 15.869318 22.033203 C 14.953409 22.033203 14.211364 22.775195 14.211364 23.690508 C 14.211364 24.606953 14.953409 25.348945 15.869318 25.348945 Z M 12.578409 8.342031 C 14.013636 10.905586 12.470455 12.886875 9.907955 14.317617 C 7.347727 15.752891 4.736364 16.085938 3.305682 13.522383 " transform="matrix(3.4375,0,0,3.448276,0,0)"/>
<path style="fill:none;stroke-width:0.375;stroke-linecap:butt;stroke-linejoin:miter;stroke:rgb(100%,100%,100%);stroke-opacity:1;stroke-miterlimit:4;" d="M 11.796591 6.936211 C 13.231818 9.498633 11.689773 11.481055 9.127273 12.911797 C 6.567045 14.34707 3.954545 14.680117 2.525 12.116563 " transform="matrix(3.4375,0,0,3.448276,0,0)"/>
<path style="fill:none;stroke-width:0.375;stroke-linecap:butt;stroke-linejoin:miter;stroke:rgb(100%,100%,100%);stroke-opacity:1;stroke-miterlimit:4;" d="M 10.990909 6.080938 C 12.369318 8.536875 10.888636 10.445664 8.428409 11.8175 C 5.970455 13.196133 3.4625 13.512188 2.089773 11.058516 " transform="matrix(3.4375,0,0,3.448276,0,0)"/>
<path style="fill:none;stroke-width:0.375;stroke-linecap:butt;stroke-linejoin:miter;stroke:rgb(100%,100%,100%);stroke-opacity:1;stroke-miterlimit:4;" d="M 10.2875 4.909609 C 11.664773 7.365547 10.185227 9.275469 7.725 10.647305 C 5.269318 12.022539 2.759091 12.340859 1.386364 9.884922 " transform="matrix(3.4375,0,0,3.448276,0,0)"/>
<path style="fill:none;stroke-width:0.375;stroke-linecap:butt;stroke-linejoin:miter;stroke:rgb(100%,100%,100%);stroke-opacity:1;stroke-miterlimit:4;" d="M 9.6625 3.660117 C 11.039773 6.114922 9.560227 8.024844 7.1 9.39668 C 4.644318 10.773047 2.134091 11.091367 0.761364 8.63543 " transform="matrix(3.4375,0,0,3.448276,0,0)"/>
<path style="fill:none;stroke-width:0.375;stroke-linecap:butt;stroke-linejoin:miter;stroke:rgb(100%,100%,100%);stroke-opacity:1;stroke-miterlimit:4;" d="M 8.935227 2.639453 C 10.254545 5.0025 8.832955 6.834258 6.475 8.150586 C 4.111364 9.470313 1.704545 9.777305 0.386364 7.418789 " transform="matrix(3.4375,0,0,3.448276,0,0)"/>
<path style="fill:none;stroke-width:0.375;stroke-linecap:butt;stroke-linejoin:miter;stroke:rgb(100%,100%,100%);stroke-opacity:1;stroke-miterlimit:4;" d="M 7.792045 2.027734 C 8.926136 4.055469 7.710227 5.622148 5.684091 6.754961 C 3.6625 7.886641 1.595455 8.150586 0.463636 6.125117 " transform="matrix(3.4375,0,0,3.448276,0,0)"/>
<path style="fill:none;stroke-width:0.375;stroke-linecap:butt;stroke-linejoin:miter;stroke:rgb(100%,100%,100%);stroke-opacity:1;stroke-miterlimit:4;" d="M 6.645455 1.340117 C 7.606818 3.063125 6.571591 4.396445 4.854545 5.358203 C 3.129545 6.321094 1.377273 6.545391 0.414773 4.82125 " transform="matrix(3.4375,0,0,3.448276,0,0)"/>
<path style="fill:none;stroke-width:0.5;stroke-linecap:butt;stroke-linejoin:miter;stroke:rgb(0.784314%,43.921569%,62.352941%);stroke-opacity:1;stroke-miterlimit:4;" d="M 20.635227 32.529844 C 21.590909 36.867383 21.601136 43.512461 26.294318 45.406523 C 27.651136 45.954805 29.228409 45.699922 30.604545 46.198359 C 33.856818 47.385547 35.244318 50.763594 37.889773 52.902344 C 40.284091 54.836055 43.525 54.601563 46.260227 53.611484 " transform="matrix(3.4375,0,0,3.448276,0,0)"/>
</g>
</svg>

<svg xmlns="http://www.w3.org/2000/svg" viewBox="0 0 47.5 57.5" height="57.5" width="47.5"><path d="M12.28 8.01l10.225 18.296a5.314 5.314 0 0 1-9.277 5.18L3.183 13.513" fill="#02709f"/><path d="M12.28 8.01l10.225 18.296a5.313 5.313 0 0 1-9.277 5.18L3.183 13.512" fill="none" stroke="#fff" stroke-width=".5"/><path d="M12.28 8.01l10.225 18.296a5.314 5.314 0 0 1-9.277 5.18L3.183 13.513" fill="#02709f"/><path d="M12.28 8.01l10.225 18.296a5.313 5.313 0 0 1-9.277 5.18L3.183 13.512" fill="none" stroke="#fff" stroke-width=".5"/><path d="M15.479 55.998c-7.813 0-14.142-1.978-14.142-4.42 0-2.44 6.329-4.418 14.142-4.418 7.812 0 14.14 1.978 14.14 4.419s-6.328 4.419-14.14 4.419" fill="#02709f"/><path d="M15.479 55.999c-7.813 0-14.142-1.978-14.142-4.42s6.329-4.42 14.142-4.42c7.812 0 14.14 1.978 14.14 4.42S23.29 56 15.479 56z" fill="none" stroke="#fff" stroke-width=".5"/><path d="M15.479 50.51c-3.907 0-7.07-.991-7.07-2.213 0-1.22 3.163-2.206 7.07-2.206 3.906 0 7.07.987 7.07 2.206 0 1.222-3.164 2.213-7.07 2.213" fill="#02709f"/><path d="M15.479 50.51c-3.907 0-7.07-.991-7.07-2.212 0-1.22 3.163-2.207 7.07-2.207 3.906 0 7.07.986 7.07 2.207 0 1.22-3.164 2.212-7.07 2.212z" fill="none" stroke="#fff" stroke-width=".5"/><path d="M12.422 8.185c1.435 2.563-.107 4.546-2.67 5.978-2.56 1.435-5.172 1.767-6.602-.797l-1.841-3.29-.28-.728C-.4 6.788.128 2.614 2.69 1.184c2.56-1.431 5.954.263 7.385 2.827l.33.561 2.018 3.613"/><path d="M12.422 8.186c1.435 2.563-.107 4.545-2.67 5.976-2.56 1.435-5.172 1.768-6.602-.796l-1.841-3.291-.28-.728C-.4 6.79.128 2.615 2.69 1.184c2.56-1.43 5.954.263 7.385 2.827l.33.561 2.018 3.614z" fill="none" stroke="#fff" stroke-width=".5"/><path d="M12.422 8.185c1.435 2.563-.107 4.546-2.67 5.978-2.56 1.435-5.172 1.767-6.602-.797l-1.841-3.29-.28-.728C-.4 6.788.128 2.614 2.69 1.184c2.56-1.431 5.954.263 7.385 2.827l.33.561 2.018 3.613" fill="#02709f"/><path d="M12.422 8.186c1.435 2.563-.107 4.545-2.67 5.976-2.56 1.435-5.172 1.768-6.602-.796l-1.841-3.291-.28-.728C-.4 6.79.128 2.615 2.69 1.184c2.56-1.43 5.954.263 7.385 2.827l.33.561 2.018 3.614z" fill="none" stroke="#fff" stroke-width=".5"/><path d="M15.479 49.235a1.56 1.56 0 0 1-1.563-1.563V22.516c0-.858.698-1.562 1.563-1.562.863 0 1.562.704 1.562 1.562v25.156a1.56 1.56 0 0 1-1.563 1.563" fill="#02709f"/><path d="M15.479 49.236a1.56 1.56 0 0 1-1.563-1.563V22.517a1.563 1.563 0 0 1 3.125 0v25.156c0 .864-.699 1.563-1.563 1.563z" fill="none" stroke="#fff" stroke-width=".5"/><path d="M15.869 25.349a1.658 1.658 0 0 0 0-3.315 1.657 1.657 0 0 0 0 3.315" fill="#02709f"/><path d="M15.869 25.349a1.658 1.658 0 0 0 0-3.316 1.657 1.657 0 0 0 0 3.316zM12.578 8.342c1.436 2.564-.107 4.545-2.67 5.976-2.56 1.435-5.172 1.768-6.602-.796" fill="none" stroke="#fff" stroke-width=".5"/><path d="M11.797 6.936c1.435 2.563-.107 4.545-2.67 5.976-2.56 1.435-5.172 1.768-6.602-.796" fill="none" stroke="#fff" stroke-width=".375"/><path d="M10.991 6.081c1.378 2.456-.102 4.365-2.563 5.737-2.457 1.378-4.966 1.694-6.338-.76" fill="none" stroke="#fff" stroke-width=".375"/><path d="M10.288 4.91c1.377 2.455-.103 4.365-2.563 5.737-2.456 1.376-4.966 1.694-6.339-.762" fill="none" stroke="#fff" stroke-width=".375"/><path d="M9.663 3.66C11.04 6.115 9.56 8.025 7.1 9.397c-2.456 1.376-4.966 1.694-6.339-.762" fill="none" stroke="#fff" stroke-width=".375"/><path d="M8.935 2.639c1.319 2.363-.102 4.195-2.46 5.512C4.111 9.47 1.704 9.777.386 7.419" fill="none" stroke="#fff" stroke-width=".375"/><path d="M7.792 2.028c1.134 2.027-.082 3.594-2.108 4.727-2.021 1.132-4.088 1.396-5.22-.63" fill="none" stroke="#fff" stroke-width=".375"/><path d="M6.645 1.34c.962 1.723-.073 3.057-1.791 4.018-1.724.963-3.477 1.187-4.439-.537" fill="none" stroke="#fff" stroke-width=".375"/><path d="M20.635 32.53c.956 4.337.966 10.982 5.659 12.877 1.357.548 2.934.293 4.311.791 3.252 1.187 4.639 4.566 7.285 6.704 2.394 1.934 5.635 1.7 8.37.709" fill="none" stroke="#02709f" stroke-width=".5"/></svg>
